!!!!SEGMENT: pl-lzu--m-15111--001-036_noskowski-zygmunt--spiewnik-dla-dzieci-op-34-36-dzien-dobry.krn
!!!cenid: 18xx:4733
!!!COM: Noskowski, Zygmunt
!!!COM-rismID: pe106604
!!!CDT: 1846/05/02-1909/07/23
!!!CNT: Polish
!!!GTL: Śpiewnik dla dzieci, op. 34
!!!OTL: 36. Dzień dobry
!!!OMV: 036
!!!PDT: 1890
!!!AGN: Secular; Song; Children
!!!YEC: Copyright 2022 Narodowy Instytut Fryderyka Chopina (https://polishscores.org)
!!!YEM: License CC-BY-4.0 (https://creativecommons.org/licenses/by/4.0)
!!!SMS-siglum: PL-LŹu
!!!SMS-shelfmark: M 15111
!!!SMS-variant:
!!!SMS-altvar:
!!!SMS-shelfwork: 001-036 G
!!!NIFC-rismSourceID: 1001234040
!!!NIFC-rismChildID: 1001234040
!!!NIFC-islandoraID: pl-lzu:5455
!!!URL-pdf-islandora: https://repozytorium.nifc.pl/islandora/object/pl-lzu%3A5455/datastream/PDF/view
!!!URL-scan: https://polish.musicsources.pl/pl/lokalizacje/galeria/druki-muzyczne/23228/43 @EN{Scan on Polish Music Sources Website} @PL{Skany w portalu Dziedzictwo Muzyki Polskiej w otwartym dostępie}
!!!IIIF:
!!!ONB-nifc:
!!!AIN: 1 piano 1 vox
!!!key: F
!!!OMD: Quasi andantino con moto.
**kern	**kern	**dynam	**kern	**text	**text	**dynam
*part2	*part2	*part2	*part1	*part1	*part1	*part1
*staff3	*staff2	*staff2/3	*staff1	*staff1	*staff1	*staff1
*I"[Piano]	*I"[Piano]	*	*I"[Voice]	*	*	*
*I'pf	*I'pf	*	*I'V	*	*	*
*Ipiano	*Ipiano	*	*Ivox	*	*	*
*ICklav	*ICklav	*	*ICvox	*	*	*
*IGacmp	*IGacmp	*	*IGsolo	*	*	*
*>[A,B,B,C]	*>[A,B,B,C]	*>[A,B,B,C]	*>[A,B,B,C]	*>[A,B,B,C]	*>[A,B,B,C]	*>[A,B,B,C]
*>A	*>A	*>A	*>A	*>A	*>A	*>A
*clefF4	*clefG2	*	*clefG2	*	*	*
*k[b-]	*k[b-]	*	*k[b-]	*	*	*
*F:	*F:	*	*F:	*	*	*
*M2/4	*M2/4	*	*M2/4	*	*	*
=1	=1	=1	=1	=1	=1	=1
!	!LO:TX:a:i:t=Niezbyt prędko.	!	!	!	!	!
2r	(16A/LL	p	2r	.	.	.
.	16c/	.	.	.	.	.
.	16B-/	.	.	.	.	.
.	16d-X/JJ	.	.	.	.	.
.	16Bn/LL	.	.	.	.	.
.	16dn/	.	.	.	.	.
.	16c/	.	.	.	.	.
.	16e-X/JJ	.	.	.	.	.
=2	=2	=2	=2	=2	=2	=2
2r	16c#X/LL	<	2r	.	.	.
.	16en/	.	.	.	.	.
.	16d/	.	.	.	.	.
.	16f/JJ	.	.	.	.	.
.	16d#X/LL	[	.	.	.	.
.	16f#X/	.	.	.	.	.
.	16e/	.	.	.	.	.
.	16g/JJ)	.	.	.	.	.
=3!|:	=3!|:	=3!|:	=3!|:	=3!|:	=3!|:	=3!|:
*>B	*>B	*>B	*>B	*>B	*>B	*>B
*	*	*	*	*v:1	*v:2	*
!	!	!LO:DY:rj	!	!	!	!LO:DY:rj
2F\	(16g#XLL 16Bn/	p	8g#X/	Za-	Do-	p
.	16f/	.	.	.	.	.
.	16a 16c/	<	8a/	-szu-	-bry	<
.	16f/JJ	.	.	.	.	.
.	16b-XLL 16d-X/	.	8b-\	-mia-	dzień	.
.	16f/	.	.	.	.	.
.	16bn 16dn/	[	8bn\	-ło	ci,	[
.	16f/JJ)	.	.	.	.	.
!!LO:LB:g=original
=4	=4	=4	=4	=4	=4	=4
*	*	*	*	*v:1	*v:2	*
2FF/	(16ddLL 16e^/	.	8dd^\	na-	wio-	.
.	16f/	.	.	.	.	.
.	16cc 16e-X/	>	8cc\	-sze	-sko	>
.	16f/JJ	.	.	.	.	.
.	16b-XLL 16d/	.	8b-X\	po-	mi-	.
.	16f/	.	.	.	.	.
.	16a 16c/	.	8a/	-le	-ła,	]
.	16f/JJ)	]	.	.	.	.
=5	=5	=5	=5	=5	=5	=5
(8D/L	(16gLL 16Bn/	.	8g/	Zło-	Dro-	.
.	16f/	.	.	.	.	.
8GG/J	16a 16c/	.	8a/	-tą	-gi	.
.	16f/JJ	.	.	.	.	.
8D/L	16gLL 16B/	.	8g/	pie-	dom-	.
.	16f/	.	.	.	.	.
8GG/J)	16a 16c/	.	8a/	-śnią	-ku,	.
.	16f/JJ	.	.	.	.	.
=6	=6	=6	=6	=6	=6	=6
(4D/	16gLL 16Bn/	.	4g/	zbóż,	ty!	.
.	16f/	.	.	.	.	.
.	16B/	.	.	.	.	.
.	16f/JJ	.	.	.	.	.
4D-X/)	16B-X/LL	.	4r	.	.	.
.	16f/	.	.	.	.	.
.	16B-/	.	.	.	.	.
.	16f/JJ)	.	.	.	.	.
=7	=7	=7	=7	=7	=7	=7
2C/	(16f#XLL 16A/	.	8f#X/	Wscho-	I	<
.	16e/	<	.	.	.	.
.	16g 16B-/	.	8g/	-dzi,	wy	.
.	16e/JJ	.	.	.	.	.
.	16g#XLL 16Bn/	.	8g#X/	wscho-	świe-	.
.	16e/	.	.	.	.	.
.	16a 16c/	[	8a/	-dzi	-żo	[
.	16e/JJ)	.	.	.	.	.
!!LO:PB:g=original
=8	=8	=8	=8	=8	=8	=8
*	*	*	*	*v:1	*v:2	*
2CC/	(16ccLL 16d^/	.	8cc^\	śli-	roz-	.
.	16e/	.	.	.	.	.
.	16b-X 16d-X/	>	8b-\	-czne	-kwi-	>
.	16e/JJ	.	.	.	.	.
.	16aLL 16c/	.	8a/	słon-	-tnio-	.
.	16e/	.	.	.	.	.
.	16gn 16B-X/	.	8g/	-ko	-ne	]]
.	16e/JJ)	]	.	.	.	.
=9	=9	=9	=9	=9	=9	=9
(8FF/L	(16fLL 16A/	.	8f/	Wśród	Pod	.
.	16c/	.	.	.	.	.
8BB-/J	16d 16G/	.	8d/	ró-	o-	.
.	16B-/JJ	.	.	.	.	.
8FF/L	16fLL 16A/	.	8f/	-ża-	-kien-	.
.	16c/	.	.	.	.	.
8BB-/J)	16d 16G/	.	8d/	-nych	-kiem	.
.	16B-/JJ	.	.	.	.	.
=10	=10	=10	=10	=10	=10	=10
4FF/	16fLL 16A/	.	4f/	zórz.	bzy.	.
.	16c/	.	.	.	.	.
.	16A/	.	.	.	.	.
.	16c/JJ	.	.	.	.	.
4r	16A/LL	.	4r	.	.	.
.	16c/	.	.	.	.	.
.	16f/	.	.	.	.	.
.	16c/JJ)	.	.	.	.	.
=11	=11	=11	=11	=11	=11	=11
2C/	(16eLL 16c/	<	8e/	Wscho-	Do-	<
.	16G/	.	.	.	.	.
.	16g 16e/	.	8g/	-dzi,	-bry	.
.	16c/JJ	.	.	.	.	.
.	16gLL 16e/	.	8g/	wscho-	dzień	.
.	16c/	[	.	.	.	.
.	16cc 16g/	.	8cc\	-dzi	wam,	[
.	16e/JJ)	.	.	.	.	.
!!LO:LB:g=original
=12	=12	=12	=12	=12	=12	=12
*	*	*	*	*v:1	*v:2	*
4D\	(16ccLL 16f/	.	8cc\	zło-	do-	.
.	16d/	.	.	.	.	.
.	16bn 16f/	>	8bn\	-tą	-brzy	>
.	16d/JJ	.	.	.	.	.
4E\	16aLL 16d/	.	8a/	dro-	lu-	.
.	16Bn/	.	.	.	.	.
.	16g#X 16e/	]	8g#X/	-gą	-dzie,	]
.	16B/JJ)	.	.	.	.	.
=13	=13	=13	=13	=13	=13	=13
4.AA/	(16aLL 16e/	.	8a/	Nad	Co	.
.	16c/	<	.	.	.	.
.	16bn 16a/	.	8bn\	ten	i-	<
.	16d/JJ	.	.	.	.	.
.	16ccLL 16a/	.	8cc\	cie-	-dzie-	.
.	16e/	.	.	.	.	.
8F\	16dd 16a/	[	8dd\	-mny	-cie	[
.	16d/JJ	.	.	.	.	.
=14	=14	=14	=14	=14	=14	=14
4C/	16eeLL 16a/	.	4ee\	las,	w świt,	.
.	16e/	.	.	.	.	.
.	16a/	.	.	.	.	.
.	16e/JJ	.	.	.	.	.
4r	16a/LL	.	4r	.	.	.
.	16e/	.	.	.	.	.
.	16a/	.	.	.	.	.
.	16cc/JJ)	.	.	.	.	.
=15	=15	=15	=15	=15	=15	=15
!	!	!	!	!	!	!LO:DY:rj
2D\	(16ee/LL	.	8ee\	A	Z ja-	f
.	16c/	.	.	.	.	.
.	16a 16f#X/	>	8a/	sko-	-sną	>
.	16c/JJ	.	.	.	.	.
.	16cc/LL	.	(16cc\LL	-wro-	ko-	.
.	16bn 16c/	.	16bn\JJ)	.	.	.
.	16a 16f#/	]	8a/	-nek	-są	]
.	16c/JJ)	.	.	.	.	.
!!LO:LB:g=original
=16	=16	=16	=16	=16	=16	=16
*	*	*	*	*v:1	*v:2	*
!	!	!	!	!	!	!LO:DY:rj
2GG/	(16cc/LL	.	8cc\	z gniazd-	na	p
.	16c/	.	.	.	.	.
.	16e/	.	8e/	-ka	ra-	.
.	16c/JJ	.	.	.	.	.
.	16g/LL	.	(16g/LL	le-	-mie-	.
.	16fn 16G/	.	16f/JJ)	.	.	.
.	16e 16c/	.	8e/	-ci,	-niu,	.
.	16G/JJ	.	.	.	.	.
=17	=17	=17	=17	=17	=17	=17
4.GG/	16f/LL	.	8f/	Piosn-	Mie-	<
.	16A/	<	.	.	.	.
.	16g 16c/	.	8g/	-ką	-dzą	.
.	16A/JJ	.	.	.	.	.
.	16aLL 16f/	.	8a/	bu-	po-	.
.	16c/JJ	[	.	.	.	.
8Bn 8G\	16ddLL 16f/	.	(16dd\LL	-dzi	-śród	[
.	16ee\JJ)	.	16ee\JJ)	.	.	.
=18	=18	=18	=18	=18	=18	=18
[2C/	(16cc/LL	.	[2cc\	nas.	żyt.	>]
.	16e/	>	.	.	.	.
.	16g/	.	.	.	.	.
.	16e/JJ	.	.	.	.	.
.	16f#X/LL	.	.	.	.	.
.	16d#X/	.	.	.	.	.
.	16f#/	]	.	.	.	.
.	16d#/JJ	.	.	.	.	.
=19	=19	=19	=19	=19	=19	=19
4C/]	16fn/LL	.	4cc\]	.	.	.
.	16dn/	.	.	.	.	.
.	16f/	<	.	.	.	.
.	16d/JJ	.	.	.	.	.
4r	16f#X/LL	.	4r	.	.	.
.	16d#X/	.	.	.	.	.
.	16g/	[	.	.	.	.
.	16e/JJ)	.	.	.	.	.
!!LO:PB:g=original
=20:|!	=20:|!	=20:|!	=20:|!	=20:|!	=20:|!	=20:|!
*>C	*>C	*>C	*>C	*>C	*>C	*>C
*	*	*	*	*v:3	*	*
2F\	(16g#XLL 16B-/	p	8g#X/	Do-	.	p
.	16f/	.	.	.	.	.
.	16a 16c/	<	8a/	-bry	.	<
.	16f/JJ	.	.	.	.	.
.	16b-XLL 16d-X/	.	8b-\	dzień	.	.
.	16f/	.	.	.	.	.
.	16bn 16dn/	[	8bn\	wam,	.	[
.	16f/JJ	.	.	.	.	.
=21	=21	=21	=21	=21	=21	=21
2FF/	16ddLL 16e^/	.	8dd^\	la-	.	.
.	16f/	.	.	.	.	.
.	16cc 16e-X/	.	8cc\	-sy	.	>
.	16f/JJ	>	.	.	.	.
.	16b-XLL 16d/	.	8b-X\	cie-	.	.
.	16f/	.	.	.	.	.
.	16a 16c/	]	8a/	-mne,	.	]
.	16f/JJ)	.	.	.	.	.
=22	=22	=22	=22	=22	=22	=22
(8D/L	(16gLL 16Bn/	.	8g/	Sto-	.	.
.	16f/	.	.	.	.	.
8GG/J	16a 16c/	.	8a/	-ją-	.	.
.	16f/JJ	.	.	.	.	.
8D/L	16gLL 16B/	.	8g/	-ce	.	.
.	16f/	.	.	.	.	.
8GG/J)	16a 16c/	.	8a/	we	.	.
.	16f/JJ)	.	.	.	.	.
!!LO:LB:g=original
=23	=23	=23	=23	=23	=23	=23
*	*	*	*	*v:3	*	*
(4D/	(16gLL 16Bn/	.	4g/	mgle,	.	.
.	16f/	.	.	.	.	.
.	16B/	.	.	.	.	.
.	16f/JJ	.	.	.	.	.
4D-X/)	16B-X/LL	.	4r	.	.	.
.	16f/	.	.	.	.	.
.	16B-/	.	.	.	.	.
.	16f/JJ)	.	.	.	.	.
=24	=24	=24	=24	=24	=24	=24
2C/	(16f#XLL 16A/	.	8f#X/	I	.	.
.	16en/	.	.	.	.	.
.	16g 16B-/	<	8g/	ty	.	<
.	16e/JJ	.	.	.	.	.
.	16g#XLL 16Bn/	.	8g#X/	ma-	.	.
.	16e/	[	.	.	.	.
.	16a 16c/	.	8a/	-ły	.	[
.	16e/JJ	.	.	.	.	.
=25	=25	=25	=25	=25	=25	=25
2CC/	16ccLL 16d^/	.	8cc^\	sko-	.	.
.	16e/	.	.	.	.	.
.	16b-X 16d-X/	.	8b-\	-wro-	.	>
.	16e/JJ	>	.	.	.	.
.	16aLL 16c/	.	8a/	-necz-	.	.
.	16e/	.	.	.	.	.
.	16gn 16B-X/	]	8gn/	-ku,	.	]
.	16e/JJ)	.	.	.	.	.
!!LO:LB:g=original
=26	=26	=26	=26	=26	=26	=26
*	*	*	*	*v:3	*	*
8FF/L	(16fLL 16A/	.	8f/	Co	.	.
.	16c/	.	.	.	.	.
8BB-/J	16d 16G/	.	8d/	zbu-	.	.
.	16B-/JJ	.	.	.	.	.
8FF/L	16fLL 16A/	.	8f/	-dzi-	.	.
.	16c/	.	.	.	.	.
8BB-/J	16d 16G/	.	8d/	-łeś	.	.
.	16B-/JJ	.	.	.	.	.
=27	=27	=27	=27	=27	=27	=27
4FF/	16fLL 16A/	.	4f/	mnie!	.	.
.	16c/	.	.	.	.	.
.	16A/	<	.	.	.	.
.	16c/JJ	.	.	.	.	.
4r	16A/LL	.	4r	.	.	.
.	16c/	.	.	.	.	.
.	16f/	.	.	.	.	.
.	16c/JJ)	[	.	.	.	.
=28	=28	=28	=28	=28	=28	=28
!	!	!LO:DY:rj	!	!	!	!LO:DY:rj
2GG/	(16f\LL	f	8f/	I	.	f
.	16g\	.	.	.	.	.
.	16gg 16bn\	.	8ff\	ty	.	.
.	16g\JJ	.	.	.	.	.
.	16eeLL 16b\	.	8ee\	ma-	.	.
.	16g\	.	.	.	.	.
.	16dd 16b\	.	8dd\	-ły	.	.
.	16f\JJ)	.	.	.	.	.
=29	=29	=29	=29	=29	=29	=29
2G\	(16cc#XLL 16bn/	.	8cc#X\	sko-	.	.
.	16e/	.	.	.	.	.
.	16dd 16b/	>	8dd\	-wro-	.	.
.	16f/JJ	.	.	.	.	.
.	16bLL 16f/	.	8bn/	-necz-	.	.
.	16d/	.	.	.	.	.
.	16g 16f/	]	8g/	-ku	.	.
.	16Bn/JJ)	.	.	.	.	.
!!LO:PB:g=original
=30	=30	=30	=30	=30	=30	=30
*	*	*	*	*v:3	*	*
2C	(16g#XLL 16Bn/	.	8g#X/	Co	.	.
!	!LO:TX:c:i:t=poco rit.	!	!	!	!	!
.	16f/	.	.	.	.	.
.	16a 16c/	.	8a/	zbu-	.	>
.	16f/JJ	.	.	.	.	.
.	16ddLL 16b-X/	.	8dd\	-dzi-	.	.
.	16e/	.	.	.	.	.
.	16b- 16d/	.	(16b-X/LL	-łeś	.	.
.	16aJJ 16c/)	.	16a/JJ)	.	.	]
=31	=31	=31	=31	=31	=31	=31
!	!	!LO:DY:rj	!	!	!	!LO:DY:rj
(4.FF/	(16fLL 16A/	p	[2f/	mnie!	.	p
.	16c/	.	.	.	.	.
.	16A/	.	.	.	.	.
.	16c/JJ	.	.	.	.	.
.	16fLL 16A/	.	.	.	.	.
.	16c/	.	.	.	.	.
8BB-)/	16d 16G/	.	.	.	.	.
.	16B-/JJ)	.	.	.	.	.
=32	=32	=32	=32	=32	=32	=32
(8FFL/	(16fLL 16A/	.	2f/_	.	.	.
.	16c/	.	.	.	.	.
8BB-J/	16d 16G/	.	.	.	.	.
.	16B-/JJ	.	.	.	.	.
8FFL/	16fLL 16A/	.	.	.	.	.
.	16c/	.	.	.	.	.
8BB-J)/	16d 16G/	.	.	.	.	.
.	16B-/JJ)	.	.	.	.	.
=33	=33	=33	=33	=33	=33	=33
*ped	*	*	*	*	*	*
4FF/	4f 4A/	.	4f/]	.	.	.
4C 4FF/	4f 4A/	.	4r	.	.	.
=34	=34	=34	=34	=34	=34	=34
2C 2FF/	2f 2A/	.	2r	.	.	.
==	==	==	==	==	==	==
*-	*-	*-	*-	*-	*-	*-
!!!system-decoration: p1{p2}
!!!RDF**kern: > = above
!!!RDF**kern: < = below
!!!ENC: Andrzej Gręziak
!!!END: 2025-03-06
!!!ENC: Marta Lawrence
!!!END: 2025-03-22
